!!!SOCIAL_FUNCTION:	songs of war
!!!PDT:	1918

Specific Region: Dakotas, Minnesota, Montana, Nebraska
!!!REG: Dakotas and Montana
!!!LING_GROUP: Siouan
!!!LANG: Tone
!!!OTL@ENG: He Lies Over There
!!!ONM: No. 148
**kern
*Ifeme
*clefG2
*k[f#c#g#]
*M2/4
*MM66
4f#
4f#
=1||
*M3/4
4cc#
4cc#
12dd
12cc#
[12b
=2||
*M2/4
4b]
8a
8f#
=3
4a
8.f#
16f#
=4
[2f#
=5
4..f#]
16f#
=6
8.a
16a
4a
=7
4a
8b
8a
=8||
*M3/4
8.a
16f#
4a
4f#
=9||
*M2/4
2c#
=10
8c#
16e
16d
[4c#
=11
4c#]
16B
8.B
=12
8B
8G#
4B
=13
[2G#
=14
2G#]
=15
4..G#
16c#
=16
8.f#
16f#
8.f#
16f#
=17
4cc#
4cc#
=18
(16cc#
16b)
8b
(16a
16f#)
8f#
=19
(8.a
16f#)
4f#
=20
4.f#
8f#
=21
8.a
16a
4a
=22
4a
16b
16a
8a
=23||
*M3/4
(16.a
32f#)
8f#
(8.a
16f#)
(8.f#
16c#)
=24
4c#
8.c#
16c#
4c#
=25||
*M2/4
[12c#
12c#]
24e
24d
4c#
=26
8c#
8B
4B
=27
8B
8G#
4B
=28
[2G#
=29
2G#]
==
*-
!!!CNT: Native American -- Sioux
!!!MRD: 1911/07//-1914///
!!!OCL: Frances Densmore
!!!YOR1: Teton Sioux Music, Bulletin 61,
!!!YOR2: Bureau of American Ethnology, Smithsonian Institution
!!!PPR: Government Printing Office
!!!PPP: Washington, D.C.
!!!PDT: 1918///
!!!ENC: Craig Stuart Sapp
!!!END: 2002/03/25/
!!!EEV: 2002/03/31/
!!!AGN: War Song/Song of a Typical War Expedition
!!!MPN@@SIO: Chanku'lawing
!!!MPN@ENG: Ms. Lawrence
!!!TXO: Teton Sioux
!!!MLC: Standing Rock Reservation, South Dakota, United States of America
!!!ARL: 45.9/-100.7#
!!!catalog: Catalogue No. 687
!!!PPG: 366
!!!EFL: 152/245
!!!VTS: 3263331050
